X:1
T:A Portrait Of My Love
T:Portrait Of My Love
T:Cyril Ornadel
T:David West
C:Cyril Ornadel
Z:All Rights Reserved
L:1/4
M:4/4
K:C
V:1 treble 
%%MIDI program 40
%%MIDI control 7 100
%%MIDI control 10 64
V:1
"Dm7" c d"G9" A B |"Fmaj7" c d"Bb7" e f |"G9" g/f/c/A/ e d/c/ |"Abdim" E E/4F/4_A/4B/4"G9" e2 |: %4
w: ||||
"C" c G G G |"Dm7""G7" G3 G |"Am" A E E E |"Fm" E3 F |"C" G C"Am" C C |"Dm7" C2"G7" D2 | %10
w: There could nev- er|be A|Port- rait Of My|Love For|no- bod- y could|paint a|
"C" E2"Am7" D/C/B,/A,/ |"Dm7" G/F/A/e/"G9" e/d/e/d/ |"C" c G G G |"Dm7""G7" G3 G |"Am" A E E E | %15
w: dream * * * *||You will nev- er|see a|port- rait of my|
"Fm" E3 F |"C" G C"Am" C C |"Dm7" C2"G7" D2 |"C" C G/A/"F" d/c/d/c/ |"C" G2 D/C/E/G/ | %20
w: love For|mir- a- cles are|nev- er|seen. * * * * * *||
"A7b9" _B G"A+" F"A7b9" E | ^C _B"A7" A E |"Dm" G2 F2 | F F E D |"B7" c A"B+7" G"B7" ^F | %25
w: an- * * *|* y one who|sees her||soon * * *|
 ^D c B ^F |"Dm7" A2"G7" G2 |"Dm7" A2"G7" B2 |"C" c G G G |"Dm7""G7" G3 G |"Am" A E E E | %31
w: * for- gets the|Mo- na|Li- sa|It would take, I|know a|Mi- chel- an- ge-|
"Fm" E3 F |"C" G C"Am" C C |"Dm" A D D"G7" D |"Em" B E"G6" E"C6" E |"Am" c3 A |"Dm7" c A A"Em7" B | %37
w: lo And|he would need the|glow of dawn that|paints the sky a-|bove, To|try and paint a|
"F6" c d"G9" A"G7" B |1"C" c2"Am" B A ||"Dm9" E G"G9" E G :|2"Dm7" c d/c/"Dbmaj7" c _e/c/ || %41
w: Port- rait of my|love. * *||love. * * * * *|
"C6" c4 |] %42
w: |

